X: 52
T:Swedish Jig, The
T:Arthur Darley's Jig
T:Bruckless Shore, The
M:6/8
L:1/8
C:Arthur Darley
R:Double Jig [Irregular]
K:D
ABA AGF|EDC D2A|d2e fgf|edc d2A|!
d2e fgf|edc d2A|BAG FED|
M:9/8
EDC DA,B, CDE|!
Ddd Eee|Fff Ggg|fed edc|1d3 dcB:|2d3 d=c_B|!
K:DMin
|:A2f fef|A2f fef|Aff Agg|Aaa Abb|!
A2f fef|A2f f2g|fed ed^c|1d3 dcB:|2d3 d2e|!
K:D
|:fgf edc|d2A BAG|FED EDC|DA,B, CDE|!
Ddd Eee|Fff Ggg|fed edc|1d3 d2e:|2d3 dcB|]!
